X:209
T:The Woods Of Fanad
Z:Jack Campin, http://www.campin.me.uk/
F:Jack Campin's Nine-Note Tunebook
% last edit 03-02-2013
S:http://www.thesession.org/tunes/display/7761
M:9/8
L:1/8
Q:3/8=112
K:D
A/G/|F2D DED DED|F2D DED A2G|F2D DED DED|G2F E2F G2:|
E   |F2A d2c d3 |F2A d2c dAG|F2A ddc d2F|G2F E2F G2:|

